Newaita-dark/.LP/scalable/nm-vpn-standalone-lock.svg

<svg xmlns="http://www.w3.org/2000/svg" xmlns:xlink="http://www.w3.org/1999/xlink" width="512px" height="512px" viewBox="0 0 512 512" version="1.1">
<g id="surface1">
<path style=" stroke:none;fill-rule:nonzero;fill:rgb(25.882354%,25.882354%,25.882354%);fill-opacity:1;" d="M 201.101562 25.167969 C 160.054688 25.167969 127.011719 53.492188 127.011719 88.675781 L 127.011719 258.023438 L 84.675781 258.023438 C 72.949219 258.023438 63.507812 267.464844 63.507812 279.191406 L 63.507812 469.710938 C 63.507812 481.4375 72.949219 490.878906 84.675781 490.878906 L 423.375 490.878906 C 435.101562 490.878906 444.542969 481.4375 444.542969 469.710938 L 444.542969 279.191406 C 444.542969 267.464844 435.101562 258.023438 423.375 258.023438 L 381.035156 258.023438 L 381.035156 88.675781 C 381.035156 53.492188 347.992188 25.167969 306.945312 25.167969 Z M 211.6875 88.675781 L 296.363281 88.675781 C 308.089844 88.675781 317.53125 98.117188 317.53125 109.84375 L 317.53125 258.023438 L 190.519531 258.023438 L 190.519531 109.84375 C 190.519531 98.117188 199.960938 88.675781 211.6875 88.675781 Z M 211.6875 88.675781 "/>
</g>
</svg>

<svg xmlns="http://www.w3.org/2000/svg" width="512" height="512"><path d="M201.102 25.168c-41.047 0-74.09 28.324-74.09 63.508v169.347H84.676a21.122 21.122 0 0 0-21.168 21.168v190.52a21.122 21.122 0 0 0 21.168 21.168h338.699a21.122 21.122 0 0 0 21.168-21.168V279.19a21.122 21.122 0 0 0-21.168-21.168h-42.34V88.676c0-35.184-33.043-63.508-74.09-63.508zm10.585 63.508h84.676a21.122 21.122 0 0 1 21.168 21.168v148.18H190.52v-148.18a21.122 21.122 0 0 1 21.167-21.168zm0 0" fill="#424242"/></svg>
